!!!COM: Ludwig van Beethoven
!!!CNT: Deutsch
!!!TXO: Deutsch
!!!OTL: "Die Liebe des Na2chsten"
!!!LYR: Gellert, Christian Fu2rchtegott
!!!OPS: Op. 48
!!!ONM: No. 2
!!!ENC: Amanda Harris
!!!YOR: Sa2mtliche Lieder, Band 1
!!!YOR: G. Henle Verlag
!!!ODT: 1801/
!!NB: Vocal melody and text encoded.
**kern	**silbe
*clefG2	*
*k[b-e-a-]	*
*M2/2	*
*MM[lebhaft, doch nicht zu sehr]	*
=1	=1
2r	.
4r	.
{4e-	{So
=2	=2
2b-	je-
2b-	-mand
=3	=3
2.b-	spricht:
4b-	Ich
=4	=4
2b-	lie-
2ee-	-be
=5	=5
2ee-	Gott!
4dd	|
4g	und
=6	=6
4cc	hasst
4f	doch
4b-	sei-
4b-	-ne
=7	=7
4b-	Bru2-
4a-}	-der,}
4r	.
{4a-	{der
=8	=8
2a-	treibt
2a-	mit
=9	=9
2.a-	Got-
4a-	-tes
=10	=10
2.ff	Wahr-
4a-	-heit
=11	=11
4a-	Spott
4g	|
4r	.
4g	und
=12	=12
4.g-	reisst
8g-	sie
4g-	ganz
4g-	dar-
=13	=13
4g-	-nie-
4f}	-der.}
2r	.
=15	=15
2r	.
{2b-	{Gott
=16	=16
2gn	ist
2e-	die
=17	=17
2.cc	Lieb'
4cc	und
=18	=18
2.b-	will,
4b-	dass
=19	=19
4a-	ich
4a-	den
4a-	Na2ch-
4a-	-sten
=20	=20
2a-	lie-
4g	|
4cc	-be,
=21	=21
4cc	gleich
2b-	|
4d	als
=22	=22
4e-}	mich.}
4r	.
2r	.
*-	*-
